X:96
P:Play 3 times
M:C|
L:1/4
K:G
d2dd|B>cdd|edcB|A3B|AGGF|1 G4:|2 G3G
|:FDFG|A2BA|G/2A/2 BAG|F3F|EDE>D|1 D3G :|2 D3d||

